ru/_assets/tracker/svg/initial.svg

<svg width="99" height="20" viewBox="0 0 99 20" fill="none" xmlns="http://www.w3.org/2000/svg">
<g clip-path="url(#clip0_3479_35390)">
<path fill-rule="evenodd" clip-rule="evenodd" d="M11.1791 4.81388C11.4469 4.7718 11.7211 4.75 12 4.75C12.2789 4.75 12.5531 4.7718 12.8209 4.81388C13.1277 4.86211 13.3374 5.14999 13.2892 5.45689C13.241 5.76378 12.9531 5.97347 12.6462 5.92524C12.436 5.8922 12.2202 5.875 12 5.875C11.7798 5.875 11.564 5.8922 11.3538 5.92524C11.0469 5.97347 10.759 5.76378 10.7108 5.45689C10.6626 5.14999 10.8722 4.86211 11.1791 4.81388ZM9.6994 5.87644C9.88221 6.12762 9.82678 6.47944 9.5756 6.66224C9.22554 6.91701 8.91701 7.22554 8.66224 7.5756C8.47944 7.82678 8.12762 7.88221 7.87644 7.6994C7.62526 7.5166 7.56983 7.16478 7.75263 6.9136C8.07651 6.46859 8.46859 6.07651 8.9136 5.75263C9.16478 5.56983 9.5166 5.62526 9.6994 5.87644ZM14.3006 5.87644C14.4834 5.62526 14.8352 5.56983 15.0864 5.75263C15.5314 6.07651 15.9235 6.46859 16.2474 6.9136C16.4302 7.16478 16.3747 7.5166 16.1236 7.6994C15.8724 7.88221 15.5206 7.82678 15.3378 7.5756C15.083 7.22554 14.7745 6.91701 14.4244 6.66224C14.1732 6.47944 14.1178 6.12762 14.3006 5.87644ZM7.45689 8.71079C7.76378 8.75902 7.97347 9.0469 7.92524 9.3538C7.8922 9.56401 7.875 9.7798 7.875 10C7.875 10.2202 7.8922 10.436 7.92524 10.6462C7.97347 10.9531 7.76378 11.241 7.45689 11.2892C7.14999 11.3374 6.86211 11.1277 6.81388 10.8209C6.7718 10.5531 6.75 10.2789 6.75 10C6.75 9.72111 6.7718 9.44692 6.81388 9.17914C6.86211 8.87225 7.14999 8.66256 7.45689 8.71079ZM16.5431 8.71079C16.85 8.66256 17.1379 8.87225 17.1861 9.17914C17.2282 9.44692 17.25 9.72111 17.25 10C17.25 10.2789 17.2282 10.5531 17.1861 10.8209C17.1379 11.1277 16.85 11.3374 16.5431 11.2892C16.2362 11.241 16.0265 10.9531 16.0748 10.6462C16.1078 10.436 16.125 10.2202 16.125 10C16.125 9.7798 16.1078 9.56401 16.0748 9.3538C16.0265 9.0469 16.2362 8.75902 16.5431 8.71079ZM7.87644 12.3006C8.12762 12.1178 8.47944 12.1732 8.66224 12.4244C8.91701 12.7745 9.22554 13.083 9.5756 13.3378C9.82678 13.5206 9.88221 13.8724 9.6994 14.1236C9.5166 14.3747 9.16478 14.4302 8.9136 14.2474C8.46859 13.9235 8.07651 13.5314 7.75263 13.0864C7.56983 12.8352 7.62526 12.4834 7.87644 12.3006ZM16.1236 12.3006C16.3747 12.4834 16.4302 12.8352 16.2474 13.0864C15.9235 13.5314 15.5314 13.9235 15.0864 14.2474C14.8352 14.4302 14.4834 14.3747 14.3006 14.1236C14.1178 13.8724 14.1732 13.5206 14.4244 13.3378C14.7745 13.083 15.083 12.7745 15.3378 12.4244C15.5206 12.1732 15.8724 12.1178 16.1236 12.3006ZM10.7108 14.5431C10.759 14.2362 11.0469 14.0265 11.3538 14.0748C11.564 14.1078 11.7798 14.125 12 14.125C12.2202 14.125 12.436 14.1078 12.6462 14.0748C12.9531 14.0265 13.241 14.2362 13.2892 14.5431C13.3374 14.85 13.1277 15.1379 12.8209 15.1861C12.5531 15.2282 12.2789 15.25 12 15.25C11.7211 15.25 11.4469 15.2282 11.1791 15.1861C10.8722 15.1379 10.6626 14.85 10.7108 14.5431Z" fill="#657B8F"/>
</g>
<path d="M30.085 9.931H25.301V14H24.079V4.679H25.301V8.826H30.085V4.679H31.32V14H30.085V9.931ZM37.2825 12.713C37.2045 12.869 37.1049 13.0337 36.9835 13.207C36.8622 13.3717 36.7105 13.5233 36.5285 13.662C36.3465 13.8007 36.1299 13.9133 35.8785 14C35.6359 14.0867 35.3499 14.13 35.0205 14.13C34.4139 14.13 33.9242 13.961 33.5515 13.623C33.1789 13.2763 32.9925 12.7823 32.9925 12.141C32.9925 11.4043 33.2482 10.8627 33.7595 10.516C34.2795 10.1693 35.0162 9.996 35.9695 9.996H37.2305V9.437C37.2305 8.969 37.1092 8.63533 36.8665 8.436C36.6239 8.23667 36.2079 8.137 35.6185 8.137C35.2025 8.137 34.8082 8.20633 34.4355 8.345C34.0629 8.475 33.7292 8.62667 33.4345 8.8V7.773C33.6772 7.62567 34.0022 7.48267 34.4095 7.344C34.8255 7.19667 35.2805 7.123 35.7745 7.123C36.6239 7.123 37.2695 7.30067 37.7115 7.656C38.1535 8.00267 38.3745 8.54433 38.3745 9.281V12.908C38.3745 12.986 38.3745 13.077 38.3745 13.181C38.3832 13.2763 38.3875 13.376 38.3875 13.48C38.3962 13.584 38.4049 13.6837 38.4135 13.779C38.4222 13.8657 38.4309 13.9393 38.4395 14H37.3995C37.3735 13.8787 37.3475 13.7097 37.3215 13.493C37.3042 13.2677 37.2955 13.0727 37.2955 12.908L37.2825 12.713ZM35.2675 13.103C35.6229 13.103 35.9262 13.0293 36.1775 12.882C36.4289 12.7347 36.6325 12.5657 36.7885 12.375C36.9445 12.1757 37.0572 11.985 37.1265 11.803C37.1959 11.6123 37.2305 11.478 37.2305 11.4V10.906H36.0865C35.4019 10.906 34.9035 11.0057 34.5915 11.205C34.2882 11.3957 34.1365 11.686 34.1365 12.076C34.1365 12.3793 34.2275 12.6263 34.4095 12.817C34.5915 13.0077 34.8775 13.103 35.2675 13.103ZM45.2089 14H44.0649V11.036C43.8309 11.218 43.5579 11.361 43.2459 11.465C42.9425 11.5603 42.5959 11.608 42.2059 11.608C41.4432 11.608 40.8582 11.4217 40.4509 11.049C40.0522 10.6677 39.8529 10.061 39.8529 9.229V7.253H41.0099V9.242C41.0099 9.77067 41.1312 10.139 41.3739 10.347C41.6165 10.555 41.9589 10.659 42.4009 10.659C42.7042 10.659 42.9989 10.6157 43.2849 10.529C43.5709 10.4423 43.8309 10.308 44.0649 10.126V7.253H45.2089V14ZM51.0316 12.713C50.9536 12.869 50.8539 13.0337 50.7326 13.207C50.6112 13.3717 50.4596 13.5233 50.2776 13.662C50.0956 13.8007 49.8789 13.9133 49.6276 14C49.3849 14.0867 49.0989 14.13 48.7696 14.13C48.1629 14.13 47.6732 13.961 47.3006 13.623C46.9279 13.2763 46.7416 12.7823 46.7416 12.141C46.7416 11.4043 46.9972 10.8627 47.5086 10.516C48.0286 10.1693 48.7652 9.996 49.7186 9.996H50.9796V9.437C50.9796 8.969 50.8582 8.63533 50.6156 8.436C50.3729 8.23667 49.9569 8.137 49.3676 8.137C48.9516 8.137 48.5572 8.20633 48.1846 8.345C47.8119 8.475 47.4782 8.62667 47.1836 8.8V7.773C47.4262 7.62567 47.7512 7.48267 48.1586 7.344C48.5746 7.19667 49.0296 7.123 49.5236 7.123C50.3729 7.123 51.0186 7.30067 51.4606 7.656C51.9026 8.00267 52.1236 8.54433 52.1236 9.281V12.908C52.1236 12.986 52.1236 13.077 52.1236 13.181C52.1322 13.2763 52.1366 13.376 52.1366 13.48C52.1452 13.584 52.1539 13.6837 52.1626 13.779C52.1712 13.8657 52.1799 13.9393 52.1886 14H51.1486C51.1226 13.8787 51.0966 13.7097 51.0706 13.493C51.0532 13.2677 51.0446 13.0727 51.0446 12.908L51.0316 12.713ZM49.0166 13.103C49.3719 13.103 49.6752 13.0293 49.9266 12.882C50.1779 12.7347 50.3816 12.5657 50.5376 12.375C50.6936 12.1757 50.8062 11.985 50.8756 11.803C50.9449 11.6123 50.9796 11.478 50.9796 11.4V10.906H49.8356C49.1509 10.906 48.6526 11.0057 48.3406 11.205C48.0372 11.3957 47.8856 11.686 47.8856 12.076C47.8856 12.3793 47.9766 12.6263 48.1586 12.817C48.3406 13.0077 48.6266 13.103 49.0166 13.103ZM54.4423 11.907C54.5637 11.465 54.6417 10.867 54.6763 10.113C54.711 9.359 54.7283 8.40567 54.7283 7.253H59.2653V14H58.1083V8.228H55.8073C55.7987 9.15533 55.7683 9.97867 55.7163 10.698C55.673 11.4173 55.5733 12.024 55.4173 12.518C55.27 13.012 55.049 13.389 54.7543 13.649C54.4683 13.9003 54.0827 14.026 53.5973 14.026C53.5627 14.026 53.528 14.026 53.4933 14.026C53.4587 14.026 53.4197 14.0217 53.3763 14.013V12.882C53.4197 12.8907 53.476 12.895 53.5453 12.895C53.9873 12.895 54.2863 12.5657 54.4423 11.907ZM66.1386 11.751C66.1386 12.141 66.0692 12.479 65.9306 12.765C65.7919 13.051 65.5969 13.285 65.3456 13.467C65.0942 13.649 64.7952 13.7833 64.4486 13.87C64.1019 13.9567 63.7249 14 63.3176 14H61.0816V7.253H62.2256V9.606H63.3956C64.2536 9.606 64.9252 9.775 65.4106 10.113C65.8959 10.451 66.1386 10.997 66.1386 11.751ZM62.2256 10.581V13.025H63.3176C63.8116 13.025 64.2102 12.934 64.5136 12.752C64.8256 12.5613 64.9816 12.2493 64.9816 11.816C64.9816 11.374 64.8429 11.0577 64.5656 10.867C64.2882 10.6763 63.8982 10.581 63.3956 10.581H62.2256ZM72.0022 11.01H68.7392V14H67.5952V7.253H68.7392V10.035H72.0022V7.253H73.1462V14H72.0022V11.01ZM80.0139 11.751C80.0139 12.141 79.9446 12.479 79.8059 12.765C79.6673 13.051 79.4723 13.285 79.2209 13.467C78.9696 13.649 78.6706 13.7833 78.3239 13.87C77.9773 13.9567 77.6003 14 77.1929 14H75.0219V7.253H76.1659V9.606H77.2709C78.1289 9.606 78.8006 9.775 79.2859 10.113C79.7713 10.451 80.0139 10.997 80.0139 11.751ZM82.1329 14H80.9889V7.253H82.1329V14ZM76.1659 10.581V13.025H77.1929C77.6869 13.025 78.0856 12.934 78.3889 12.752C78.7009 12.5613 78.8569 12.2493 78.8569 11.816C78.8569 11.374 78.7183 11.0577 78.4409 10.867C78.1636 10.6763 77.7736 10.581 77.2709 10.581H76.1659ZM86.9872 6.356C86.6406 6.356 86.3372 6.31267 86.0772 6.226C85.8259 6.13067 85.6136 6.005 85.4402 5.849C85.2756 5.68433 85.1499 5.498 85.0632 5.29C84.9852 5.07333 84.9462 4.83933 84.9462 4.588H86.0902C86.0902 4.91733 86.1682 5.15567 86.3242 5.303C86.4889 5.45033 86.7099 5.524 86.9872 5.524C87.2646 5.524 87.4812 5.45033 87.6372 5.303C87.7932 5.15567 87.8712 4.91733 87.8712 4.588H89.0152C89.0152 5.082 88.8462 5.50233 88.5082 5.849C88.1789 6.187 87.6719 6.356 86.9872 6.356ZM85.1542 12.44L88.7552 7.253H89.9122V14H88.7682V8.826L85.1802 14H84.0102V7.253H85.1542V12.44Z" fill="#586A7A"/>
<defs>
<clipPath id="clip0_3479_35390">
<rect width="12" height="12" fill="white" transform="translate(6 4)"/>
</clipPath>
</defs>
</svg>

<svg xmlns="http://www.w3.org/2000/svg" width="99" height="20" fill="none" viewBox="0 0 99 20">
    <g clip-path="url(#clip0_3479_35390)">
        <path fill="#657B8F" fill-rule="evenodd" d="M11.18 4.814a5.286 5.286 0 0 1 1.64 0 .563.563 0 0 1-.174 1.111 4.16 4.16 0 0 0-1.292 0 .562.562 0 0 1-.175-1.111ZM9.7 5.876a.562.562 0 0 1-.124.786 4.17 4.17 0 0 0-.914.914.562.562 0 1 1-.91-.662 5.278 5.278 0 0 1 1.162-1.161.563.563 0 0 1 .785.123Zm4.6 0a.563.563 0 0 1 .786-.123c.445.324.838.716 1.161 1.16a.563.563 0 0 1-.91.663 4.152 4.152 0 0 0-.913-.914.562.562 0 0 1-.123-.786ZM7.458 8.711a.562.562 0 0 1 .468.643 4.16 4.16 0 0 0 0 1.292.562.562 0 0 1-1.111.175 5.286 5.286 0 0 1 0-1.642.562.562 0 0 1 .643-.468Zm9.086 0a.562.562 0 0 1 .643.468 5.283 5.283 0 0 1 0 1.642.563.563 0 0 1-1.111-.175 4.164 4.164 0 0 0 0-1.292.562.562 0 0 1 .468-.643ZM7.876 12.3a.562.562 0 0 1 .786.123c.255.35.564.659.914.914a.562.562 0 1 1-.662.91 5.278 5.278 0 0 1-1.161-1.162.563.563 0 0 1 .123-.785Zm8.248 0a.563.563 0 0 1 .123.785 5.28 5.28 0 0 1-1.16 1.161.563.563 0 0 1-.663-.91c.35-.254.659-.563.914-.913a.562.562 0 0 1 .786-.123Zm-5.413 2.242a.562.562 0 0 1 .643-.468 4.164 4.164 0 0 0 1.292 0 .562.562 0 1 1 .175 1.111 5.284 5.284 0 0 1-1.642 0 .562.562 0 0 1-.468-.643Z" clip-rule="evenodd"/>
    </g>
    <path fill="#586A7A" d="M30.085 9.931h-4.784V14h-1.222V4.679h1.222v4.147h4.784V4.679h1.235V14h-1.235V9.931Zm7.197 2.782c-.077.156-.177.32-.298.494a2.26 2.26 0 0 1-1.105.793c-.243.087-.53.13-.858.13-.607 0-1.097-.169-1.47-.507-.372-.347-.559-.84-.559-1.482 0-.737.256-1.278.768-1.625.52-.347 1.256-.52 2.21-.52h1.26v-.559c0-.468-.12-.802-.363-1.001-.243-.2-.66-.299-1.248-.299-.416 0-.81.07-1.184.208-.372.13-.706.282-1 .455V7.773c.242-.147.567-.29.974-.429a4.063 4.063 0 0 1 1.366-.221c.849 0 1.495.178 1.937.533.441.347.662.888.662 1.625v3.9c.01.095.014.195.014.299.008.104.017.204.026.299.008.087.017.16.026.221H37.4a5.934 5.934 0 0 1-.078-.507 7.787 7.787 0 0 1-.027-.585l-.013-.195Zm-2.014.39c.355 0 .658-.074.91-.221.25-.147.455-.316.61-.507.157-.2.27-.39.339-.572.069-.19.103-.325.103-.403v-.494h-1.143c-.685 0-1.184.1-1.495.299-.304.19-.456.481-.456.871 0 .303.091.55.273.741.183.19.468.286.858.286Zm9.94.897h-1.143v-2.964a2.724 2.724 0 0 1-.82.429 3.47 3.47 0 0 1-1.04.143c-.762 0-1.347-.186-1.754-.559-.399-.381-.598-.988-.598-1.82V7.253h1.157v1.989c0 .529.121.897.364 1.105.242.208.585.312 1.027.312.303 0 .598-.043.884-.13.286-.087.546-.221.78-.403V7.253h1.144V14Zm5.824-1.287c-.078.156-.178.32-.3.494a2.264 2.264 0 0 1-1.104.793c-.243.087-.53.13-.858.13-.607 0-1.097-.169-1.47-.507-.372-.347-.558-.84-.558-1.482 0-.737.255-1.278.767-1.625.52-.347 1.256-.52 2.21-.52h1.26v-.559c0-.468-.12-.802-.363-1.001-.243-.2-.66-.299-1.248-.299-.416 0-.81.07-1.183.208-.373.13-.707.282-1.001.455V7.773a5.05 5.05 0 0 1 .975-.429 4.063 4.063 0 0 1 1.365-.221c.849 0 1.495.178 1.937.533.442.347.663.888.663 1.625v3.9c.008.095.013.195.013.299.008.104.017.204.026.299.008.087.017.16.026.221h-1.04a5.934 5.934 0 0 1-.078-.507 7.734 7.734 0 0 1-.026-.585l-.013-.195Zm-2.015.39c.355 0 .658-.074.91-.221.25-.147.455-.316.61-.507.157-.2.27-.39.339-.572.069-.19.104-.325.104-.403v-.494h-1.144c-.685 0-1.183.1-1.495.299-.304.19-.455.481-.455.871 0 .303.09.55.273.741.182.19.468.286.858.286Zm5.425-1.196c.122-.442.2-1.04.234-1.794a64.33 64.33 0 0 0 .052-2.86h4.537V14h-1.157V8.228h-2.3a39.76 39.76 0 0 1-.092 2.47c-.043.72-.143 1.326-.299 1.82-.147.494-.368.871-.663 1.131-.286.251-.671.377-1.157.377h-.104a.601.601 0 0 1-.117-.013v-1.131a.89.89 0 0 0 .17.013c.441 0 .74-.33.896-.988Zm11.697-.156c0 .39-.07.728-.208 1.014-.14.286-.334.52-.585.702a2.58 2.58 0 0 1-.897.403c-.347.087-.724.13-1.131.13h-2.236V7.253h1.144v2.353h1.17c.858 0 1.53.169 2.015.507.485.338.728.884.728 1.638Zm-3.913-1.17v2.444h1.092c.494 0 .892-.091 1.196-.273.312-.19.468-.503.468-.936 0-.442-.14-.758-.416-.949-.278-.19-.668-.286-1.17-.286h-1.17Zm9.776.429H68.74V14h-1.144V7.253h1.144v2.782h3.263V7.253h1.144V14h-1.144v-2.99Zm8.012.741c0 .39-.07.728-.208 1.014-.139.286-.334.52-.585.702-.251.182-.55.316-.897.403-.347.087-.724.13-1.131.13h-2.171V7.253h1.144v2.353h1.105c.858 0 1.53.169 2.015.507.485.338.728.884.728 1.638ZM82.133 14h-1.144V7.253h1.144V14Zm-5.967-3.419v2.444h1.027c.494 0 .893-.091 1.196-.273.312-.19.468-.503.468-.936 0-.442-.139-.758-.416-.949-.277-.19-.667-.286-1.17-.286h-1.105Zm10.821-4.225c-.346 0-.65-.043-.91-.13a2.002 2.002 0 0 1-.637-.377 1.723 1.723 0 0 1-.377-.559 2.058 2.058 0 0 1-.117-.702h1.144c0 .33.078.568.234.715.165.147.386.221.663.221.278 0 .494-.074.65-.221.156-.147.234-.386.234-.715h1.144c0 .494-.169.914-.507 1.261-.33.338-.836.507-1.52.507Zm-1.833 6.084 3.601-5.187h1.157V14h-1.144V8.826L85.18 14h-1.17V7.253h1.144v5.187Z"/>
    <defs>
        <clipPath id="clip0_3479_35390">
            <path fill="#fff" d="M6 4h12v12H6z"/>
        </clipPath>
    </defs>
</svg>
